!!!!SEGMENT: pl-kk--kk-i-2--011-001_pacelli-asprilio--missa-ave-maris-stella-kyrie.krn
!!!cenid: 16xx:1616
!!!COM: Pacelli, Asprilio
!!!COM-rismID: pe30009570
!!!CDT: 1570-1623/05/04
!!!CNT: Italian
!!!OPR: Missa Ave Maris Stella
!!!OTL: Kyrie
!!!OMV: 001
!!!PDT:
!!!AGN: Sacred; Mass
!!!SMS-siglum: PL-Kk
!!!SMS-shelfmark: Kk.I.2
!!!SMS-shelfwork: 011-001 M
!!!NIFC-rismSourceID: 300258027
!!!NIFC-islandoraID: pl-kk:750
!!!URL-pdf-islandora: https://repozytorium.nifc.pl/islandora/object/pl-kk%3A750/datastream/PDF/view
!!!URL-scan: https://polish.musicsources.pl/pl/lokalizacje/galeria/rekopisy/5828 @EN{Scan on Polish Music Herritage in Open Access Website} @PL{Skany w portalu Dziedzictwo Muzyki Polskiej w otwartym dostępie}
!!!ONB-nifc: Części mszy: Kyrie, Gloria, Credo, Sanctus, Agnus Dei; skany: C: 0026-0027; A: 0126-0127; T: 0230-0231; B: 0328-0329;
!!!AIN: 1 alto 1 bass 1 soprn 1 tenor
!!!key: d:dor
**kern	**text	**kern	**text	**kern	**text	**kern	**text
*group1	*	*group1	*	*group1	*	*group1	*
*part4	*part4	*part3	*part3	*part2	*part2	*part1	*part1
*staff4	*staff4	*staff3	*staff3	*staff2	*staff2	*staff1	*staff1
*I"BASSVS	*	*I"TENOR	*	*I"ALTVS	*	*I"DISCANTVS	*
*I'[B]	*	*I'[T]	*	*I'[A]	*	*I'[S]	*
*Ibass	*	*Itenor	*	*Ialto	*	*Isoprn	*
*ICvox	*	*ICvox	*	*ICvox	*	*ICvox	*
*clefF4	*	*clefC4	*	*clefC4	*	*clefC3	*
*k[]	*	*k[]	*	*k[]	*	*k[]	*
*d:dor	*	*d:dor	*	*d:dor	*	*d:dor	*
*M2/1	*	*M2/1	*	*M2/1	*	*M2/1	*
*met(C|)	*	*met(C|)	*	*met(C|)	*	*met(C|)	*
=1-	=1-	=1-	=1-	=1-	=1-	=1-	=1-
!!LO:TX:t=P:problem:w utworze liczne dysonansowe współbrzmienia
!LO:TX:t=P:problem=all\right&colon; global	!	!LO:TX:t=P:problem=all\right&colon; global	!	!LO:TX:t=P:problem=all\right&colon; global	!	!LO:TX:t=P:problem=all\right&colon; global	!
!	!	!	!	!	!	!LO:TX:t=P:problem=kreska pseudotaktowa	!
00r	.	00r	.	1D	KY-	1r	.
.	.	.	.	1.A	ri-	1A	Kÿ-
=2-	=2-	=2-	=2-	=2-	=2-	=2-	=2-
.	.	.	.	.	.	1d	-ri-
!	!	!	!	!LO:TX:t=P:problem=kreska pseudotaktowa	!	!	!
*	*	*	*	*2\right	*	*	*
.	.	.	.	2Bn\	-e	.	.
*	*	*	*	*	*	*2\right	*
.	.	.	.	2G/	.	2e\	-e
!	!	!	!	!	!	!LO:TX:t=P:problem=kreska pseudotaktowa	!
.	.	.	.	2A/	.	2c/	.
=3-	=3-	=3-	=3-	=3-	=3-	=3	=3
!LO:TX:t=P:problem=kreska pseudotaktowa	!	!	!	!	!	!	!
00r	.	0r	.	2Bn\	.	2d\	.
!	!	!	!	!LO:TX:t=P:problem=kreska pseudotaktowa	!	!	!
.	.	.	.	2c\	.	2e\	.
.	.	.	.	2.d\	.	2f#X\	.
.	.	.	.	.	.	1g\	.
.	.	.	.	4c\	.	.	.
=4-	=4-	=4-	=4-	=4-	=4-	=4-	=4-
!	!	!LO:TX:t=P:problem=kreska pseudotaktowa	!	!	!	!	!
.	.	1r	.	2B\	.	.	.
.	.	.	.	4A/	.	4fny\	.
!	!	!	!	!LO:TX:t=P:problem=kreska pseudotaktowa	!	!LO:TX:t=P:problem=kreska pseudotaktowa	!
.	.	.	.	4G/	.	4e\	.
*	*	*	*	*	*	*lig	*
.	.	1D	Kÿ-	2A/	.	1f	.
.	.	.	.	1d\	.	.	.
=5	=5	=5-	=5-	=5-	=5-	=5-	=5-
1AA	Kÿ-	1.A	-ri-	.	.	1e	.
!	!	!	!	!LO:TX:t=P:problem=kreska pseudotaktowa	!	!	!
.	.	.	.	2c#X\	.	.	.
*	*	*	*	*	*	*Xlig	*
1D	-ri-	.	.	2.d\	.	2.f\	e-
*	*	*2\right	*	*	*	*	*
!	!	!LO:TX:t=P:problem=kreska pseudotaktowa	!	!	!	!	!
.	.	2B#X\	-e	.	.	.	.
.	.	.	.	4cny\	.	8e\L	.
!	!	!	!	!	!	!LO:TX:t=P:problem=kreska pseudotaktowa	!
.	.	.	.	.	.	8f\J	.
=6-	=6-	=6	=6	=6-	=6-	=6	=6
*2\right	*	*	*	*	*	*	*
2E\	-e	2G/	.	2B\	.	4g\	.
.	.	.	.	.	.	4f\	.
!LO:TX:t=P:problem=kreska pseudotaktowa	!	!	!	!	!	!	!
2C/	.	2A/	.	1A	.	4e\	.
.	.	.	.	.	.	8d/L	.
.	.	.	.	.	.	8c/J	.
2D/	.	2B\	.	.	.	2f\	.
!	!	!	!	!LO:TX:t=P:problem=kreska pseudotaktowa	!	!	!
!	!	!	!	!	!	!LO:TX:t=P:problem=kreska pseudotaktowa	!
2E\	.	4c\	.	2G#X/	e-	2e\	-lei-
!	!	!LO:TX:t=P:problem=kreska pseudotaktowa	!	!	!	!	!
.	.	4B\	.	.	.	.	.
*	*	*	*	*custos:A	*	*	*
!	!	!	!	!LO:LB:g=original	!	!	!
=7-	=7-	=7	=7	=7	=7	=7	=7
2F#X\	.	4d\	.	2A/	-lei-	2d\	-ſon.
.	.	4c\	.	.	.	.	.
1G	.	4B\	.	2B\	-ſon	2.d\	Kÿ-
.	.	8A/L	.	.	.	.	.
.	.	8G/J	.	.	.	.	.
.	.	2A/	.	2d\	Kÿ-	.	.
.	.	.	.	.	.	4e\	-ri-
!	!	!	!	!	!	!LO:SIC:v:s:t=2f#\	!
!LO:TX:t=P:problem=kreska pseudotaktowa	!	!	!	!LO:TX:t=P:problem=kreska pseudotaktowa	!	!	!
2F#\	.	1d\	.	2A/	-ri-	2f\	-e
=8	=8	=8-	=8-	=8	=8	=8	=8
*lig	*	*	*	*	*	*	*
*	*	*	*	*	*	*custos:g	*
!	!	!	!	!	!	!LO:LB:g=original	!
1E	.	.	.	2B\	-e	1.g	e-
.	.	4c\	.	2G/	e-	.	.
.	.	8B\L	.	.	.	.	.
.	.	8c\J	.	.	.	.	.
1D	.	2d\	.	2A/	.	.	.
!	!	!LO:TX:t=P:problem=kreska pseudotaktowa	!	!LO:TX:t=P:problem=kreska pseudotaktowa	!	!	!
.	.	2D/	.	2B\	.	2f\	.
*Xlig	*	*	*	*	*	*	*
=9-	=9-	=9	=9	=9	=9	=9-	=9-
2C/	e-	1G	e-	2c\	.	2e\	.
!LO:TX:t=P:problem=kreska pseudotaktowa	!	!	!	!	!	!	!
2BB/	.	.	.	1d	.	4d\	.
!	!	!	!	!	!	!LO:TX:t=P:problem=kreska pseudotaktowa	!
.	.	.	.	.	.	4B/	.
1AA	-lei-	1A	-lei-	.	.	1e	-lei-
.	.	.	.	2c#X\	lei-	.	.
=10-	=10-	=10-	=10-	=10-	=10-	=10-	=10-
!	!	!	!	!LO:TX:t=P:problem=kreska pseudotaktowa	!	!LO:TX:t=P:problem=kreska pseudotaktowa	!
1GG	-ſon.	2D/	-ſon.	1d	-ſon	1g	-ſon.
!	!	!LO:TX:t=P:problem=kreska pseudotaktowa	!	!	!	!	!
.	.	2G/	.	.	.	.	.
*	*	*custos:E	*	*	*	*	*
!	!	!LO:LB:g=original	!	!	!	!	!
!LO:TX:t=P:problem=kreska pseudotaktowa	!	!	!	!	!	!	!
1AA	Kÿ-	2E/	Kÿ-	2r	.	2r	.
.	.	1A\	-ri-	1A\	Kÿ-	2e\	Kÿ-
=11	=11	=11-	=11-	=11-	=11-	=11-	=11-
!	!	!	!	!	!	!LO:TX:b:t=P:problem=# below	!
1D	-ri-	.	.	.	.	1f#X	-ri-
!	!	!LO:TX:t=P:problem=kreska pseudotaktowa	!	!LO:TX:t=P:problem=kreska pseudotaktowa	!	!	!
.	.	2B\	-e	2d\	-ri-	.	.
2E\	-e	2G/	.	2B\	-e	2g\	-e
!LO:TX:t=P:problem=kreska pseudotaktowa	!	!	!	!	!	!LO:TX:t=P:problem=kreska pseudotaktowa	!
2C/	e-	1A\	.	2cny\	.	2e\	.
=12	=12	=12-	=12-	=12-	=12-	=12	=12
2.D/	.	.	.	2A/	.	2.f\	e-
!	!	!	!	!LO:TX:t=P:problem=kreska pseudotaktowa	!	!	!
.	.	2.d\	e-	2B\	e-	.	.
4E\	.	.	.	.	.	4e\	.
*custos:F	*	*	*	*	*	*	*
!LO:LB:g=original	!	!	!	!	!	!	!
2F#X\	.	.	.	2A/	-lei-	1d	-lei-
.	.	4c\	.	.	.	.	.
!	!	!LO:TX:t=P:problem=kreska pseudotaktowa	!	!	!	!	!
2G\	-lei-	2B\	-lei-	2G/	.	.	.
=13-	=13-	=13	=13	=13-	=13-	=13-	=13-
2D/	-ſon.	2A/	-ſon.	2A/	-ſon	2d\	-ſon.
!LO:TX:t=P:problem=kreska pseudotaktowa	!	!	!	!LO:TX:t=P:problem=kreska pseudotaktowa	!	!LO:TX:t=P:problem=kreska pseudotaktowa	!
2D/	Kÿ-	2A/	Kÿ-	2d\	Ky-	2f#X\	Kÿ-
2E\	-ri-	1e	-ri-	2B\	-ri-	2.g\	-ri-
2C/	-e	.	.	2c\	-e	.	.
!	!	!	!	!	!	!LO:TX:t=P:problem=kreska pseudotaktowa	!
.	.	.	.	.	.	4e\	-e
=14-	=14-	=14-	=14-	=14-	=14-	=14	=14
2.D/	e-	2d\	-e	2A/	.	4f\	e-
.	.	.	.	.	.	4e\	.
!	!	!LO:TX:t=P::problem=kreska pseudotaktowa&colon;między nutą a kropką	!	!	!	!	!
.	.	2.A/	e-	2.d\	.	4f\	.
!LO:TX:t=P:problem=kreska pseudotaktowa	!	!	!	!	!	!	!
4E\	.	.	.	.	.	4g\	.
2F#X\	.	.	.	.	.	2a\	-lei-
.	.	8G/L	.	4c\	.	.	.
.	.	8A/J	.	.	.	.	.
*	*	*	*	*custos:B	*	*	*
!	!	!	!	!LO:LB:g=original	!	!	!
!	!	!	!	!LO:TX:t=P:problem=kreska pseudotaktowa	!	!LO:TX:t=P:problem=kreska pseudotaktowa	!
1G\	.	4B\	.	2B\	.	2g\	-ſon.
.	.	4c\	.	.	.	.	.
=15-	=15-	=15-	=15-	=15	=15	=15	=15
*	*	*	*	*lig	*	*	*
.	.	2d\	.	1A	e-	1r	.
!	!	!LO:TX:t=P:problem=kreska pseudotaktowa	!	!	!	!	!
2Fny\	.	2D/	.	.	.	.	.
1E	-lei-	2.G/	.	1G	.	2g\	Ky-
!	!	!	!	!	!	!LO:TX:t=P:problem=kreska pseudotaktowa	!
.	.	.	.	.	.	2e\	-ri-
.	.	4C/	.	.	.	.	.
*	*	*	*	*Xlig	*	*	*
=16-	=16-	=16-	=16-	=16-	=16-	=16	=16
!LO:TX:t=P:problem=kreska pseudotaktowa	!	!	!	!	!	!	!
0D	-ſon.	2F/	.	1d	-lei-	4a\	-e
.	.	.	.	.	.	4g\	.
!	!	!LO:TX:t=P:problem=kreska pseudotaktowa	!	!	!	!	!
.	.	2D/	.	.	.	4f\	.
!	!	!	!	!	!	!LO:TX:t=P:problem=kreska pseudotaktowa	!
.	.	.	.	.	.	4e\	.
*	*	*	*	*	*	*custos:d	*
!	!	!	!	!	!	!LO:LB:g=original	!
!	!	!	!	!LO:TX:t=P:problem=kreska pseudotaktowa	!	!	!
.	.	1.d	-lei-	0d	-ſon	4d\	.
.	.	.	.	.	.	4A/	e-
.	.	.	.	.	.	4B/	.
!	!	!	!	!	!	!LO:TX:t=P:problem=kreska pseudotaktowa	!
.	.	.	.	.	.	4c/	.
=17	=17	=17-	=17-	=17	=17	=17	=17
0r	.	.	.	.	.	2d\	-lei-
!	!	!	!	!	!	!LO:TX:t=P:problem=kreska pseudotaktowa	!
.	.	2D/	-ſon.	.	.	2A/	-ſon.
*	*	*	*	*	*	*lig	*
!	!	!LO:TX:t=P:problem=kreska pseudotaktowa	!	!	!	!	!
.	.	0A	Ky-	1r	.	1e	Kÿ-
=18-	=18-	=18-	=18-	=18	=18	=18-	=18-
!LO:TX:t=P:problem=kreska pseudotaktowa	!	!	!	!	!	!	!
1r	.	.	.	2r	.	1f	.
.	.	.	.	1A	Kÿ-	.	.
*	*	*	*	*	*	*Xlig	*
1AA	Kÿ-	1.c	-ri-	.	.	2e\	-ri-
!	!	!	!	!LO:TX:t=P:problem=kreska pseudotaktowa	!	!	!
.	.	.	.	2A/	-ri-	2f\	-e
=19-	=19-	=19-	=19-	=19	=19	=19-	=19-
1C	-ri-	.	.	4G/	-e	2e\	.
.	.	.	.	4F/	.	.	.
!	!	!LO:TX:t=P:problem=kreska pseudotaktowa	!	!	!	!LO:TX:t=P::problem=kreska pseudotaktowa&colon;między nutą a kropką	!
.	.	2G/	-e	4E/	.	2.c/	e-
.	.	.	.	4D/	.	.	.
*	*	*custos:A	*	*	*	*	*
!	!	!LO:LB:g=original	!	!	!	!	!
1AA	-e	2.A/	e-	4C/	.	.	.
.	.	.	.	4D/	.	4B/	.
!	!	!	!	!LO:TX:t=P:problem=kreska pseudotaktowa	!	!	!
.	.	.	.	2.E/	.	1A/	.
!	!	!LO:TX:t=P:problem=kreska pseudotaktowa	!	!	!	!	!
.	.	4G/	.	.	.	.	.
=20-	=20-	=20	=20	=20	=20	=20-	=20-
1BB-X	e-	2F/	.	.	.	.	.
.	.	.	.	4D/	.	.	.
!	!	!	!	!	!	!LO:TX:t=P:problem=kreska pseudotaktowa	!
.	.	4E/	.	1D	e-	2G/	-lei-
.	.	4D/	.	.	.	.	.
*	*	*lig	*	*	*	*	*
*	*	*col	*	*	*	*	*
1AA	-lei-	1E	.	.	.	1A	-ſon.
!	!	!	!	!LO:TX:t=P:problem=kreska pseudotaktowa	!	!	!
.	.	.	.	2C#X/	-lei-	.	.
=21-	=21-	=21-	=21-	=21	=21	=21-	=21-
!LO:TX:t=P:problem=kreska pseudotaktowa	!	!	!	!	!	!	!
0D	-ſon.	2.D/	.	4D/	-ſon	1A	Kÿ-
.	.	.	.	4E/	.	.	.
.	.	.	.	4F/	.	.	.
*	*	*Xlig	*	*	*	*	*
*	*	*Xcol	*	*	*	*	*
!	!	!LO:TX:t=P:problem=kreska pseudotaktowa	!	!	!	!	!
.	.	4E/	.	4G/	.	.	.
!	!	!LO:TX:b:t=P:problem=# below	!	!LO:TX:t=P:problem=kreska pseudotaktowa	!	!	!
.	.	4F#X/	.	1A	.	1d	-ri-
.	.	4G/	.	.	.	.	.
.	.	2A/	-lei-	.	.	.	.
=22	=22	=22-	=22-	=22	=22	=22	=22
!	!	!LO:TX:t=P:problem=kreska pseudotaktowa	!	!	!	!	!
2r	.	1G	-ſon.	2r	.	2d\	-e
1GG	Kÿ-	.	.	1d	Kÿ-	1g	e-
.	.	1r	.	.	.	.	.
!	!	!	!	!LO:TX:t=P:problem=kreska pseudotaktowa	!	!LO:TX:t=P:problem=kreska pseudotaktowa	!
2GG/	-ri-	.	.	2B\	-ri-	2g\	-lei-
=23-	=23-	=23-	=23-	=23	=23	=23	=23
!LO:TX:t=P:problem=kreska pseudotaktowa	!	!	!	!	!	!	!
0C	-e	1E	Kÿ-	2.c\	-e	2.g\	-ſon
.	.	.	.	4d\	.	4f\	.
.	.	0G	-ri-	2e\	.	1e	.
!	!	!	!	!LO:TX:t=P:problem=kreska pseudotaktowa	!	!	!
.	.	.	.	2.c\	e-	.	.
=24	=24	=24-	=24-	=24	=24	=24-	=24-
!	!	!	!	!	!	!LO:TX:t=P:problem=kreska pseudotaktowa	!
1GG	e-	.	.	.	.	1d	Kÿ-
.	.	.	.	8B\L	.	.	.
.	.	.	.	8A\J	.	.	.
!	!	!	!	!LO:TX:t=P:problem=kreska pseudotaktowa	!	!	!
.	.	.	.	2B\	.	.	.
*	*	*	*	*custos:c	*	*	*
!	!	!	!	!LO:PB:g=original	!	!	!
!LO:TX:t=P:problem=kreska pseudotaktowa	!	!	!	!	!	!	!
1C	-lei-	1E	-e	4c\	.	2e\	-ri-
.	.	.	.	4G/	.	.	.
.	.	.	.	2.c\	-lei-	1c\	-e
*custos:FF	*	*	*	*	*	*	*
!LO:LB:g=original	!	!	!	!	!	!	!
=25	=25	=25-	=25-	=25-	=25-	=25-	=25-
2FF/	-ſon	0Fny	e-	.	.	.	.
.	.	.	.	4B\	.	.	.
!	!	!	!	!	!	!LO:TX:t=P:problem=kreska pseudotaktowa	!
2.F\	e-	.	.	1A	-ſon.	2c/	e-
.	.	.	.	.	.	2.f\	-lei-
4G\	.	.	.	.	.	.	.
!LO:TX:t=P:problem=kreska pseudotaktowa	!	!	!	!	!	!	!
2A\	.	.	.	1d\	e-	.	.
.	.	.	.	.	.	4g\	-ſon
*	*	*	*	*	*	*custos:a	*
!	!	!	!	!	!	!LO:LB:g=original	!
=26	=2	=26-	=26-	=26-	=26-	=26-	=26-
0AA	-lei-	0E	-lei-	.	.	4a\	e-
.	.	.	.	.	.	8g\L	.
.	.	.	.	.	.	8f\J	.
.	.	.	.	4c#X\	.	1e	.
.	.	.	.	4B\	.	.	.
!	!	!	!	!LO:TX:a:t=P:problem=# below	!	!	!
!	!	!	!	!LO:N:vis=2	!	!	!
.	.	.	.	1c#X	-lei-	.	.
.	.	.	.	.	.	2a\	-lei-
=27-	=27-	=27-	=27-	=27-	=27-	=27-	=27-
!LO:TX:t=P:problem=kreska pseudotaktowa	!	!LO:TX:t=P:problem=kreska pseudotaktowa	!	!LO:TX:t=P:problem=kreska pseudotaktowa	!	!LO:TX:t=P:problem=kreska pseudotaktowa	!
00D\	-ſon.	00D/	-ſon.	00d\	-ſon.	00f#X\	-ſon.
!LO:LB:g=original	!	!LO:PB:g=original	!	!	!	!	!
=28||	=28||	=28||	=28||	=28||	=28||	=28||	=28||
*M2/1	*	*M2/1	*	*M2/1	*	*M2/1	*
*met(C|)	*	*met(C|)	*	*met(C|)	*	*met(C|)	*
!	!	!	!	!LO:TX:t=P:problem=kreska pseudotaktowa	!	!LO:TX:t=P:problem=kreska pseudotaktowa	!
00r	.	00r	.	1r	.	0d	Chri-
.	.	.	.	0A	Chri-	.	.
=29-	=29-	=29-	=29-	=29-	=29-	=29	=29
.	.	.	.	.	.	1A	-ſte
.	.	.	.	1D	-ſte	2B/	e-
.	.	.	.	.	.	1d\	.
=30-	=30-	=30-	=30-	=30-	=30-	=30-	=30-
!LO:TX:t=P:problem=kreska pseudotaktowa	!	!	!	!LO:TX:t=P:problem=kreska pseudotaktowa	!	!	!
0r	.	0r	.	1E	.	.	.
!	!	!	!	!	!	!LO:TX:t=P:problem=kreska pseudotaktowa	!
.	.	.	.	.	.	2c/	.
.	.	.	.	1.G	e-	2B/	.
.	.	.	.	.	.	4A/	-lei-
.	.	.	.	.	.	4G/	.
=31-	=31-	=31-	=31-	=31-	=31-	=31-	=31-
!	!	!LO:TX:t=P:problem=kreska pseudotaktowa	!	!	!	!LO:TX:t=P:problem=kreska pseudotaktowa	!
0D	Chri-	1r	.	.	.	1A	-ſon.
.	.	.	.	4F/	-lei-	.	.
!	!	!	!	!LO:TX:t=P:problem=kreska pseudotaktowa	!	!	!
.	.	.	.	4E/	.	.	.
.	.	0A	Chri-	1F	-ſon.	2r	.
.	.	.	.	.	.	1d\	Chri-
=32-	=32-	=32-	=32-	=32-	=32-	=32-	=32-
1AA	-ſte	.	.	2.E/	e-	.	.
!	!	!	!	!	!	!LO:TX:t=P:problem=kreska pseudotaktowa	!
.	.	.	.	.	.	2c/	-ſte
.	.	.	.	4F/	.	.	.
*	*	*	*	*	*	*custos:B	*
!	!	!	!	!	!	!LO:LB:g=original	!
2BB/	e-	1D	-ſte	2G/	.	2B/	.
!	!	!	!	!LO:TX:t=P:problem=kreska pseudotaktowa	!	!	!
1D\	.	.	.	2F/	.	2.A/	e-
=33-	=33-	=33-	=33-	=33	=33	=33-	=33-
!	!	!LO:TX:t=P:problem=kreska pseudotaktowa	!	!	!	!	!
*	*	*	*	*lig	*	*	*
.	.	1E	e-	1E	-lei-	.	.
.	.	.	.	.	.	4B/	.
!LO:TX:t=P:problem=kreska pseudotaktowa	!	!	!	!	!	!	!
2C/	.	.	.	.	.	4c/	.
!	!	!	!	!	!	!LO:TX:t=P:problem=kreska pseudotaktowa	!
.	.	.	.	.	.	4A/	.
1BB	.	1.G	.	1D	.	4B/	.
.	.	.	.	.	.	4c/	.
.	.	.	.	.	.	4d/	.
.	.	.	.	.	.	4B/	.
*	*	*	*	*Xlig	*	*	*
=34-	=34-	=34-	=34-	=34-	=34-	=34-	=34-
*	*	*	*	*custos:A	*	*	*
!	!	!	!	!LO:LB:g=original	!	!	!
!	!	!	!	!LO:TX:t=P:problem=kreska pseudotaktowa	!	!	!
0AA	-lei-	.	.	1A	-ſon.	2c#X/	.
!	!	!LO:TX:t=P:problem=kreska pseudotaktowa	!	!	!	!	!
.	.	2F/	.	.	.	1d	.
.	.	1E	-lei-	1r	.	.	.
!	!	!	!	!	!	!LO:TX:t=P:problem=kreska pseudotaktowa	!
.	.	.	.	.	.	2c#X/	-lei-
=35-	=35-	=35-	=35-	=35-	=35-	=35	=35
!LO:TX:t=P:problem=kreska pseudotaktowa	!	!	!	!	!	!	!
1D	-ſon.	2D/	-ſon.	0F	Chri-	1d	-ſon.
!	!	!LO:TX:t=P::problem=kreska pseudotaktowa&colon;między nutą a kropką	!	!	!	!	!
.	.	2.D/	e-	.	.	.	.
1r	.	.	.	.	.	2.A/	e-
.	.	4E/	.	.	.	.	.
.	.	4F/	.	.	.	.	.
!	!	!LO:TX:t=P:problem=kreska pseudotaktowa	!	!	!	!LO:TX:t=P:problem=kreska pseudotaktowa	!
.	.	4G/	.	.	.	4B/	.
=36-	=36-	=36	=36	=36-	=36-	=36	=36
!LO:TX:t=P:problem=kreska pseudotaktowa	!	!	!	!	!	!	!
0r	.	4A/	.	1E	-ſte	4c/	.
.	.	4B/	.	.	.	4d/	.
.	.	1c	.	.	.	2.e\	.
!	!	!	!	!LO:TX:t=P:problem=kreska pseudotaktowa	!	!	!
.	.	.	.	1G	e-	.	.
.	.	.	.	.	.	4f\	.
.	.	2B\	-lei-	.	.	1g\	.
=37	=37	=37-	=37-	=37	=37	=37-	=37-
!	!	!LO:TX:t=P:problem=kreska pseudotaktowa	!	!	!	!	!
2r	.	1A	-ſon.	1A	.	.	.
!	!	!	!	!	!	!LO:TX:t=P:problem=kreska pseudotaktowa	!
1D	Chri-	.	.	.	.	2f\	.
!	!	!	!	!LO:TX:t=P:problem=kreska pseudotaktowa	!	!	!
.	.	1r	.	1A	-lei-	2e\	.
!LO:TX:t=P:problem=kreska pseudotaktowa	!	!	!	!	!	!	!
2C/	-ſte	.	.	.	.	1a\	.
=38	=38	=38-	=38-	=38-	=38-	=38-	=38-
!	!	!LO:TX:t=P:problem=kreska pseudotaktowa	!	!	!	!	!
2BB-X/	e-	0r	.	1D	.	.	.
!	!	!	!	!	!	!LO:TX:t=P:problem=kreska pseudotaktowa	!
2BB-/	-lei-	.	.	.	.	2g\	-lei-
!LO:TX:t=P:problem=kreska pseudotaktowa	!	!	!	!	!	!	!
1AA	-ſon	.	.	2E/	.	2a\	-ſon.
!	!	!	!	!LO:TX:t=P:problem=kreska pseudotaktowa	!	!	!
.	.	.	.	2F/	.	2.A/	Chri-
*custos:AA	*	*	*	*	*	*	*
!LO:LB:g=original	!	!	!	!	!	!	!
=39	=39	=39	=39	=39	=39	=39-	=39-
2r	.	0c	Chri-	1E	.	.	.
.	.	.	.	.	.	4B/	.
!LO:TX:t=P:problem=kreska pseudotaktowa	!	!	!	!	!	!	!
2.AA/	Chri-	.	.	.	.	4c/	.
!	!	!	!	!	!	!LO:TX:t=P:problem=kreska pseudotaktowa	!
.	.	.	.	.	.	4d\	.
.	.	.	.	2AA/	-ſon.	1.e	.
4BB/	.	.	.	.	.	.	.
4C/	.	.	.	4E/	Chri-	.	.
!LO:TX:t=P:problem=kreska pseudotaktowa	!	!	!	!LO:TX:t=P:problem=kreska pseudotaktowa	!	!	!
4D/	.	.	.	4F/	.	.	.
=40	=40	=40-	=40-	=40	=40	=40-	=40-
4E\	.	1B	-ſte	4G/	.	.	.
4F\	.	.	.	4A/	.	.	.
1G	.	.	.	2.B\	.	4d\	.
!	!	!	!	!	!	!LO:TX:t=P:problem=kreska pseudotaktowa	!
.	.	.	.	.	.	4c/	.
*	*	*	*	*	*	*custos:B	*
!	!	!	!	!	!	!LO:PB:g=original	!
!	!	!LO:TX:t=P:problem=kreska pseudotaktowa	!	!	!	!	!
.	.	1d	.	.	.	2B/	-ſte
.	.	.	.	4c\	.	.	.
!LO:TX:t=P:problem=kreska pseudotaktowa	!	!	!	!	!	!	!
2F\	-ſte	.	.	1d\	.	2A/	.
=41	=41	=41	=41	=41-	=41-	=41-	=41-
2E\	e-	1e	e-	.	.	2G#X/	e-
!	!	!	!	!LO:TX:t=P:problem=kreska pseudotaktowa	!	!	!
1A	.	.	.	2c\	-ſte	2A/	-lei-
!	!	!LO:TX:t=P:problem=kreska pseudotaktowa	!	!	!	!LO:TX:t=P:problem=kreska pseudotaktowa	!
.	.	1e	-lei-	4B\	e-	1E	-ſon.
.	.	.	.	4A/	.	.	.
2G\	.	.	.	4B\	.	.	.
.	.	.	.	4c\	.	.	.
*	*	*custos:A	*	*	*	*	*
!	!	!LO:LB:g=original	!	!	!	!	!
=42-	=42-	=42	=42	=42-	=42-	=42-	=42-
2F#X\	.	2A/	.	2.d\	.	2r	.
1G	.	4B\	.	.	.	1d	Chri-
!	!	!	!	!LO:TX:t=P:problem=kreska pseudotaktowa	!	!	!
.	.	4A/	.	4c\	.	.	.
.	.	4B\	.	2B\	.	.	.
.	.	4c\	.	.	.	.	.
!LO:TX:t=P:problem=kreska pseudotaktowa	!	!LO:TX:t=P:problem=kreska pseudotaktowa	!	!	!	!LO:TX:t=P:problem=kreska pseudotaktowa	!
2F#\	.	2d\	.	2.A/	.	2A/	-ſte
=43	=43	=43	=43	=43-	=43-	=43	=43
1E	.	1G	.	.	.	1B	e-
.	.	.	.	4G/	.	.	.
.	.	.	.	1G	.	.	.
*lig	*	*	*	*	*	*	*
!	!	!LO:TX:t=P:problem=kreska pseudotaktowa	!	!	!	!	!
1D	lei-	1A	-ſon.	.	.	1.d	.
!	!	!	!	!LO:TX:t=P:problem=kreska pseudotaktowa	!	!	!
.	.	.	.	2F/	.	.	.
=44-	=44-	=44	=44	=44	=44	=44-	=44-
1A	.	1r	.	2E/	.	.	.
*	*	*	*	*custos:A	*	*	*
!	!	!	!	!LO:LB:g=original	!	!	!
!	!	!	!	!	!	!LO:TX:t=P:problem=kreska pseudotaktowa	!
.	.	.	.	1A	-lei-	2c/	.
*Xlig	*	*	*	*	*	*	*
!LO:TX:t=P:problem=kreska pseudotaktowa	!	!	!	!	!	!	!
1E	-ſon	0e	Chri-	.	.	1B	-lei-
.	.	.	.	2G#X/	.	.	.
=45	=45	=45-	=45-	=45-	=45-	=45	=45
!	!	!	!	!LO:TX:t=P:problem=kreska pseudotaktowa	!	!	!
2.A\	e-	.	.	1A	-ſon.	1A	-ſon.
4G\	.	.	.	.	.	.	.
!	!	!LO:TX:t=P:problem=kreska pseudotaktowa	!	!	!	!	!
4F#X\	.	1A	-ſte	0r	.	1a	Chri-
4E\	.	.	.	.	.	.	.
!LO:TX:t=P:problem=kreska pseudotaktowa	!	!	!	!	!	!	!
2F#\	.	.	.	.	.	.	.
=46	=46	=46	=46	=46-	=46-	=46-	=46-
2G\	.	2B\	e-	.	.	1d	-ſte
2D/	lei-	1d	.	.	.	.	.
!LO:TX:t=P:problem=kreska pseudotaktowa	!	!	!	!	!	!	!
1A	-ſon	.	.	1A	Chri-	2.e\	e-
!	!	!LO:TX:t=P:problem=kreska pseudotaktowa	!	!	!	!	!
.	.	2c\	.	.	.	.	.
!	!	!	!	!	!	!LO:TX:t=P:problem=kreska pseudotaktowa	!
.	.	.	.	.	.	4f\	.
=47	=47	=47	=47	=47-	=47-	=47	=47
0r	.	1B	lei-	1D	-ſte	2g\	.
.	.	.	.	.	.	2G/	.
.	.	2A/	-ſon.	2E/	e-	2c/	.
!	!	!LO:TX:t=P:problem=kreska pseudotaktowa	!	!	!	!LO:TX:t=P:problem=kreska pseudotaktowa	!
.	.	2B\	e-	1Gny/	.	2d\	.
=48-	=48-	=48	=48	=48-	=48-	=48	=48
!LO:TX:t=P:problem=kreska pseudotaktowa	!	!	!	!	!	!	!
!LO:SIC:v:t=custos słowny "ſte"	!	!	!	!	!	!	!
0AA	Chri-	2c#X\	.	.	.	2e\	.
!	!	!	!	!LO:TX:t=P:problem=kreska pseudotaktowa	!	!	!
.	.	1d	.	2F/	.	2A/	.
.	.	.	.	1E	-lei-	2.a\	.
!	!	!LO:TX:t=P:problem=kreska pseudotaktowa	!	!	!	!	!
.	.	2c#X\	-lei-	.	.	.	.
!	!	!	!	!	!	!LO:TX:t=P:problem=kreska pseudotaktowa	!
.	.	.	.	.	.	4g\	.
*custos:D	*	*	*	*	*	*	*
!LO:PB:g=original	!	!	!	!	!	!	!
=49-	=49-	=49	=49	=49-	=49-	=49-	=49-
1D	-ſte	2.d\	-ſon.	2D/	-ſon.	4f\	.
.	.	.	.	.	.	4e\	.
!	!	!	!	!LO:TX:t=P:problem=kreska pseudotaktowa	!	!	!
.	.	.	.	2d\	e-	2f\	.
.	.	4c\	.	.	.	.	.
2E\	e-	4B\	.	1G	.	2e\	.
.	.	4A/	.	.	.	.	.
!	!	!	!	!	!	!LO:TX:t=P:problem=kreska pseudotaktowa	!
1G\	.	1B\	.	.	.	2e\	-lei-
*	*	*	*	*	*	*custos:d	*
!	!	!	!	!	!	!LO:LB:g=original	!
=50-	=50-	=50-	=50-	=50-	=50-	=50	=50
*	*	*	*	*	*	*lig	*
*	*	*	*	*	*	*col	*
.	.	.	.	2B\	.	1d	-ſon.
!LO:TX:t=P:problem=kreska pseudotaktowa	!	!LO:TX:t=P:problem=kreska pseudotaktowa	!	!	!	!	!
2F\	.	2A/	e-	1d	.	.	.
1E	-lei-	2B\	.	.	.	2.e\	.
!	!	!LO:TX:t=P:problem=kreska pseudotaktowa	!	!LO:TX:t=P:problem=kreska pseudotaktowa	!	!	!
.	.	2G/	.	2c#X\	-lei-	.	.
*	*	*	*	*	*	*Xlig	*
*	*	*	*	*	*	*Xcol	*
.	.	.	.	.	.	8d\L	.
!	!	!	!	!	!	!LO:TX:t=P:problem=kreska pseudotaktowa	!
.	.	.	.	.	.	8e\J	.
=51-	=51-	=51	=51	=51	=51	=51-	=51-
!	!	!	!	!LO:TX:t=P:problem=kreska pseudotaktowa	!	!	!
1D	-ſon	2A/	.	1d	-ſon.	1f	.
*	*	*custos:D	*	*	*	*	*
!	!	!LO:LB:g=original	!	!	!	!	!
!	!	!LO:TX:t=P::problem=kreska pseudotaktowa&colon;między nutą a kropką	!	!	!	!	!
.	.	2.D/	.	.	.	.	.
!LO:TX:t=P:problem=kreska pseudotaktowa	!	!	!	!LO:TX:t=P:problem=kreska pseudotaktowa	!	!	!
0F	Chri-	.	.	1r	.	2d\	Chri-
.	.	4E/	.	.	.	.	.
!	!	!	!	!	!	!LO:TX:t=P:problem=kreska pseudotaktowa	!
.	.	4F/	.	.	.	2.A/	-ſte
.	.	4G/	.	.	.	.	.
=52-	=52-	=52-	=52-	=52-	=52-	=52-	=52-
.	.	2.A/	.	1.c	Chri-	.	.
.	.	.	.	.	.	4B/	.
.	.	.	.	.	.	4c/	.
!	!	!LO:TX:t=P:problem=kreska pseudotaktowa	!	!	!	!LO:TX:t=P:problem=kreska pseudotaktowa	!
.	.	4B\	.	.	.	4d\	.
1E	.	2c\	.	.	.	4e\	.
.	.	.	.	.	.	4f\	.
.	.	2e\	-lei-	1B\	-ſte	1g\	.
=53-	=53-	=53-	=53-	=53-	=53-	=53-	=53-
!	!	!LO:TX:t=P:problem=kreska pseudotaktowa	!	!	!	!	!
1G	-ſte	1d	-ſon.	.	.	.	.
.	.	.	.	1d	e-	2f\	.
1A	.	1r	.	.	.	1e	.
!	!	!	!	!LO:TX:t=P:problem=kreska pseudotaktowa	!	!	!
.	.	.	.	2c#X\	.	.	.
=54-	=54-	=54-	=54-	=54-	=54-	=54-	=54-
!LO:TX:t=P:problem=kreska pseudotaktowa	!	!	!	!	!	!LO:TX:t=P:problem=kreska pseudotaktowa	!
1A	e-	2.D/	Chri-	2.d\	.	0f	.
!	!	!LO:TX:t=P:problem=kreska pseudotaktowa	!	!LO:TX:t=P:problem=kreska pseudotaktowa	!	!	!
.	.	4E/	.	4cny\	.	.	.
*lig	*	*	*	*	*	*	*
1D	.	4F/	.	2B\	.	.	.
.	.	4G/	.	.	.	.	.
.	.	4A/	.	1A\	.	.	.
.	.	4B/	.	.	.	.	.
=55-	=55-	=55-	=55-	=55-	=55-	=55-	=55-
1E	.	2c\	.	.	.	1.e	e-
!	!	!LO:TX:t=P:problem=kreska pseudotaktowa	!	!LO:TX:t=P:problem=kreska pseudotaktowa	!	!	!
.	.	2B\	-ſte	2G/	-lei-	.	.
*Xlig	*	*	*	*	*	*	*
*lig	*	*	*	*	*	*	*
*	*	*	*	*custos:A	*	*	*
!	!	!	!	!LO:LB:g=original	!	!	!
1F	.	2A/	e-	1A	-ſon.	.	.
.	.	1d\	.	.	.	2d\	.
=56-	=56-	=56-	=56-	=56-	=56-	=56-	=56-
1E	.	.	.	1G	Chri-	1e	-lei-
!	!	!LO:TX:t=P:problem=kreska pseudotaktowa	!	!	!	!	!
.	.	2c#X\	-lei-	.	.	.	.
!	!	!	!	!	!	!LO:TX:t=P:problem=kreska pseudotaktowa	!
*Xlig	*	*	*	*	*	*	*
0D	.	2d\	-ſon.	2F/	-ſte	0A	-ſon.
!!LO:TX:t=P:problem:pion głosów się nie zgadza
!	!	!	!	!LO:TX:t=P:problem=kreska pseudotaktowa	!	!	!
.	.	2.f\	Chr(i-	2.D/	e-	.	.
=57-	=57-	=57-	=57-	=57	=57	=57-	=57-
.	.	.	.	.	.	.	.
.	.	4e\	-st)e	4E/	.	.	.
.	.	2d\	e-	4F/	.	.	.
!	!	!	!	!LO:TX:t=P:problem=kreska pseudotaktowa	!	!	!
.	.	.	.	4G/	.	.	.
1AA	-lei-	2cny\	-lei-	4A/	.	1r	.
.	.	.	.	4B/	.	.	.
!	!	!LO:TX:t=P:problem=kreska pseudotaktowa	!	!	!	!	!
.	.	2A/	-ſon	2c\	.	.	.
=58-	=58-	=58	=58	=58-	=58-	=58-	=58-
!LO:TX:t=P:problem=kreska pseudotaktowa	!	!	!	!	!	!	!
1D	-ſon	2r	.	2B\	-lei-	0f	Chri-
!	!	!	!	!LO:TX:t=P:problem=kreska pseudotaktowa	!	!	!
.	.	2.D/	Chri-	2A/	-ſon.	.	.
00r	.	.	.	1d	Chri-	.	.
.	.	4E/	.	.	.	.	.
.	.	4F/	.	.	.	.	.
!	!	!LO:TX:t=P:problem=kreska pseudotaktowa	!	!	!	!	!
.	.	4G/	.	.	.	.	.
=59-	=59-	=59	=59	=59-	=59-	=59-	=59-
.	.	4A/	.	4c\	-ſte	1e	-ſte
.	.	4B\	.	4B\	.	.	.
*	*	*custos:c	*	*	*	*	*
!	!	!LO:LB:g=original	!	!	!	!	!
.	.	1c	.	4A/	.	.	.
.	.	.	.	8G/L	.	.	.
!	!	!	!	!LO:TX:t=P:problem=kreska pseudotaktowa	!	!	!
.	.	.	.	8F/J	.	.	.
!	!	!	!	!	!	!LO:TX:t=P:problem=kreska pseudotaktowa	!
.	.	.	.	4E/	.	1g	e-
.	.	.	.	4F/	.	.	.
!	!	!LO:TX:t=P:problem=kreska pseudotaktowa	!	!	!	!	!
.	.	2B\	-ſte	4G/	.	.	.
.	.	.	.	4D/	.	.	.
=60-	=60-	=60	=60	=60-	=60-	=60	=60
.	.	2A/	e-	4E/	e-	1a	.
.	.	.	.	8D/L	.	.	.
.	.	.	.	8E/J	.	.	.
.	.	1d	.	4F/	.	.	.
.	.	.	.	4E/	.	.	.
0r	.	.	.	4F/	.	1a	-lei-
.	.	.	.	4G/	.	.	.
!	!	!LO:TX:t=P:problem=kreska pseudotaktowa	!	!	!	!	!
.	.	2c\	.	1A\	.	.	.
=61-	=61-	=61	=61	=61-	=61-	=61-	=61-
.	.	1B	-lei-	.	.	1d	-ſon.
.	.	.	.	2G/	-lei-	.	.
!	!	!	!	!LO:TX:t=P:problem=kreska pseudotaktowa	!	!LO:TX:t=P:problem=kreska pseudotaktowa	!
2.AA/	Chri-	2A/	-ſon.	1A	-ſon.	0e	e-
.	.	2.E/	e-	.	.	.	.
!LO:TX:t=P:problem=kreska pseudotaktowa	!	!	!	!	!	!	!
4BB/	.	.	.	.	.	.	.
=62	=62	=62-	=62-	=62	=62	=62-	=62-
4C/	.	.	.	1r	.	.	.
4D/	.	4F/	.	.	.	.	.
!LO:TX:t=P:problem=kreska pseudotaktowa	!	!	!	!	!	!	!
4E\	.	4G/	.	.	.	.	.
!	!	!LO:TX:t=P:problem=kreska pseudotaktowa	!	!	!	!	!
4F\	.	4A/	.	.	.	.	.
2G\	.	4B\	.	2r	.	1d	.
.	.	4c\	.	.	.	.	.
!LO:TX:t=P:problem=kreska pseudotaktowa	!	!	!	!LO:TX:t=P:problem=kreska pseudotaktowa	!	!	!
2F\	-ſte	1d\	.	2A/	Chri-	.	.
=63	=63	=63-	=63-	=63	=63	=63-	=63-
!	!	!	!	!	!	!LO:TX:t=P:problem=kreska pseudotaktowa	!
2E\	e-	.	.	2G/	-ſte	1e	.
!	!	!	!	!LO:TX:t=P:problem=kreska pseudotaktowa	!	!	!
4A\	.	2c#X\	.	2E/	e-	.	.
4G\	.	.	.	.	.	.	.
*	*	*	*	*	*	*custos:f	*
!	!	!	!	!	!	!LO:LB:g=original	!
!	!	!LO:TX:t=P:problem=kreska pseudotaktowa	!	!	!	!	!
4F\	.	1d	.	4A/	.	2f\	.
4E\	.	.	.	4G/	.	.	.
1D\	.	.	.	4F/	.	4a\	.
!	!	!	!	!	!	!LO:TX:t=P:problem=kreska pseudotaktowa	!
.	.	.	.	4E/	.	4g\	.
*	*	*	*	*custos:D	*	*	*
!	!	!	!	!LO:LB:g=original	!	!	!
=64-	=64-	=64	=64	=64-	=64-	=64	=64
.	.	0.A	-lei-	2D/	.	4f\	.
.	.	.	.	.	.	8e\L	.
.	.	.	.	.	.	8d\J	.
!LO:TX:b:t=P:problem=# below	!	!	!	!	!	!	!
2C#X/	.	.	.	4.A/	.	1e	.
!	!	!	!	!LO:TX:t=P:problem=kreska pseudotaktowa	!	!	!
.	.	.	.	8G/	.	.	.
0D	-lei-	.	.	4F/	.	.	.
.	.	.	.	4E/	.	.	.
!	!	!	!	!	!	!LO:TX:t=P:problem=kreska pseudotaktowa	!
.	.	.	.	1F/	.	2.d\	.
=65-	=65-	=65-	=65-	=65-	=65-	=65-	=65-
.	.	.	.	.	.	.	.
.	.	.	.	.	.	4A/	.
.	.	.	.	2F/	-lei-	1d	.
!	!	!LO:TX:t=P:problem=kreska pseudotaktowa	!	!	!	!	!
[0.AA/l	-ſon.	[0.A\l	-ſon.	[0.El/	-ſon.	.	.
.	.	.	.	.	.	4c#X/	.
.	.	.	.	.	.	4B/	-lei-
=66-	=66-	=66-	=66-	=66-	=66-	=66-	=66-
!	!	!	!	!	!	!LO:TX:t=P:problem=kreska pseudotaktowa	!
.	.	.	.	.	.	00c#X\	-ſon.
0AA]	.	0A]	.	0E]	.	.	.
!LO:LB:g=original	!	!	!	!	!	!	!
=67||-	=67||-	=67||	=67||	=67||-	=67||-	=67||	=67||
*M2/1	*	*M2/1	*	*M2/1	*	*M2/1	*
*met(C|)	*	*met(C|)	*	*met(C|)	*	*met(C|)	*
!LO:TX:t=P:problem=kreska pseudotaktowa	!	!	!	!LO:TX:t=P:problem=kreska pseudotaktowa	!	!	!
0r	.	1.A	Kÿ-	0r	.	0r	.
!	!	!LO:TX:t=P:problem=kreska pseudotaktowa	!	!	!	!	!
.	.	2A/	-ri-	.	.	.	.
=68	=68	=68	=68	=68	=68	=68-	=68-
!	!	!	!	!	!	!LO:TX:t=P:problem=kreska pseudotaktowa	!
1.D	Kÿ-	2F/	-e	2r	.	1r	.
.	.	2D/	e-	1F	Kÿ-	.	.
.	.	4F/	.	.	.	1.A	Kÿ-
.	.	4G/	.	.	.	.	.
!LO:TX:t=P:problem=kreska pseudotaktowa	!	!	!	!LO:TX:t=P:problem=kreska pseudotaktowa	!	!	!
2D/	-ri-	4A/	.	2F/	-ri-	.	.
!	!	!LO:TX:t=P:problem=kreska pseudotaktowa	!	!	!	!	!
.	.	4B/	.	.	.	.	.
=69	=69	=69	=69	=69	=69	=69-	=69-
2C/	-e	1.c	.	0E	-e	.	.
!	!	!	!	!	!	!LO:TX:t=P:problem=kreska pseudotaktowa	!
2AA/	e-	.	.	.	.	2A/	-ri-
1C	-lei-	.	.	.	.	2G/	-e
.	.	2e\	-lei-	.	.	1c\	e-
=70-	=70-	=70-	=70-	=70-	=70-	=70-	=70-
!LO:TX:t=P:problem=kreska pseudotaktowa	!	!	!	!	!	!	!
*	*	*	*	*lig	*	*	*
1GG	-ſon	2d\	-ſon.	1G	e-	.	.
!	!	!	!	!	!	!LO:TX:t=P:problem=kreska pseudotaktowa	!
.	.	4D/	e-	.	.	2B/	.
!	!	!LO:TX:t=P:problem=kreska pseudotaktowa	!	!	!	!	!
.	.	4E/	.	.	.	.	.
*	*	*	*	*	*	*lig	*
*	*	*	*	*	*	*col	*
2.D/	e-	4F/	.	1A	.	1A	.
.	.	4G/	.	.	.	.	.
.	.	1A/	.	.	.	.	.
4C/	.	.	.	.	.	.	.
*	*	*	*	*Xlig	*	*	*
=71-	=71-	=71-	=71-	=71-	=71-	=71-	=71-
1BB	-lei-	.	.	2.D/	.	2.B/	.
!	!	!LO:TX:t=P:problem=kreska pseudotaktowa	!	!	!	!	!
.	.	2G/	lei-	.	.	.	.
*	*	*	*	*	*	*Xlig	*
*	*	*	*	*	*	*Xcol	*
!	!	!	!	!LO:TX:t=P:problem=kreska pseudotaktowa	!	!	!
.	.	.	.	4E/	.	8A/L	.
!	!	!	!	!	!	!LO:TX:t=P:problem=kreska pseudotaktowa	!
.	.	.	.	.	.	8B/J	.
2AA/	-ſon	2A/	-ſon.	2F/	.	4c/	.
.	.	.	.	.	.	4B/	.
1A\	Ky-	1c\	Ky-	4E/	.	4c/	.
.	.	.	.	4D/	.	4d/	.
=72-	=72-	=72-	=72-	=72-	=72-	=72-	=72-
.	.	.	.	2C/	.	1.e	.
!LO:TX:t=P:problem=kreska pseudotaktowa	!	!LO:TX:t=P:problem=kreska pseudotaktowa	!	!LO:TX:t=P:problem=kreska pseudotaktowa	!	!	!
2A\	-ri-	2c\	-ri-	2C/	-lei-	.	.
2G\	-e	1.B	-e	2G,>/	-ſon	.	.
*	*	*	*	*custos:G	*	*	*
!	!	!	!	!LO:PB:g=original	!	!	!
!	!	!	!	!	!	!LO:TX:t=P:problem=kreska pseudotaktowa	!
2E\	e-	.	.	1G/	Kÿ-	2e\	-lei-
=73-	=73-	=73-	=73-	=73-	=73-	=73	=73
1G	-lei-	.	.	.	.	2d\	-ſon
!	!	!	!	!LO:TX:t=P:problem=kreska pseudotaktowa	!	!	!
.	.	2B\	e-	2G/	-ri-	2g\	e-
!LO:TX:t=P:problem=kreska pseudotaktowa	!	!	!	!	!	!	!
1D	-ſon	(<1d	.	2A/	-e	2.f\	.
.	.	.	.	2.A/	e-	.	.
.	.	.	.	.	.	8e\L	.
!	!	!	!	!	!	!LO:TX:t=P:problem=kreska pseudotaktowa	!
.	.	.	.	.	.	8d\J	.
=74	=74	=74-	=74-	=74-	=74-	=74	=74
2.A\	e-	1e)	.	.	.	4c/	.
.	.	.	.	4B\	.	4d/	.
!	!	!	!	!LO:TX:t=P::problem=kreska pseudotaktowa&colon;między nutą a kropką	!	!	!
.	.	.	.	2.c\	.	2.e\	.
4G\	.	.	.	.	.	.	.
*lig	*	*lig	*	*	*	*	*
1F	-lei-	1A	-lei-	.	.	.	.
.	.	.	.	4B\	.	8d\L	.
.	.	.	.	.	.	8c\J	.
!	!	!	!	!	!	!LO:TX:t=P:problem=kreska pseudotaktowa	!
.	.	.	.	1A\	.	2d\	.
=75-	=75-	=75-	=75-	=75-	=75-	=75	=75
!	!	!LO:TX:t=P:problem=kreska pseudotaktowa	!	!	!	!LO:TX:t=P:problem=kreska pseudotaktowa	!
1E	.	1B	.	.	.	1e	-lei-
.	.	.	.	2G#X/	-lei-	.	.
*Xlig	*	*Xlig	*	*	*	*	*
*	*	*custos:A	*	*	*	*custos:e	*
!	!	!LO:PB:g=original	!	!	!	!LO:LB:g=original	!
!LO:TX:t=P:problem=kreska pseudotaktowa	!	!	!	!LO:TX:t=P:problem=kreska pseudotaktowa	!	!LO:TX:t=P:problem=kreska pseudotaktowa	!
1AA	-ſon	1A	-ſon.	1A	-ſon.	1e	-ſon.
=76	=76	=76-	=76-	=76	=76	=76	=76
00r	.	2.A/	Kÿ-	1r	.	2r	.
.	.	.	.	.	.	1A	Kÿ-
!	!	!LO:TX:t=P:problem=kreska pseudotaktowa	!	!	!	!	!
.	.	4B\	.	.	.	.	.
.	.	4c\	.	1E	Kÿ-	.	.
.	.	4d\	.	.	.	.	.
.	.	1e\	.	.	.	1c\	-ri-
=77-	=77-	=77-	=77-	=77-	=77-	=77-	=77-
!	!	!	!	!LO:TX:t=P:problem=kreska pseudotaktowa	!	!	!
.	.	.	.	1G	-ri-	.	.
!	!	!LO:TX:t=P:problem=kreska pseudotaktowa	!	!	!	!LO:TX:t=P:problem=kreska pseudotaktowa	!
.	.	2E/	-ri-	.	.	2B/	-e
.	.	2A/	e	2E/	-e	2c/	.
.	.	2F/	e-	2F/	e-	2.d\	e-
=78-	=78-	=78-	=78-	=78-	=78-	=78-	=78-
2r	.	2A/	-lei-	1E	-lei-	.	.
.	.	.	.	.	.	4c/	.
!LO:TX:t=P:problem=kreska pseudotaktowa	!	!	!	!	!	!	!
2E\	Kÿ-	1G	-ſon	.	.	1c	.
1G	-ri-	.	.	2D/	-ſon	.	.
!	!	!LO:TX:t=P:problem=kreska pseudotaktowa	!	!LO:TX:t=P:problem=kreska pseudotaktowa	!	!LO:TX:t=P:problem=kreska pseudotaktowa	!
.	.	2d\	Kÿ-	2.G/	Kÿ-	2B/	.
*custos:E	*	*	*	*	*	*	*
!LO:LB:g=original	!	!	!	!	!	!	!
=79-	=79-	=79	=79	=79	=79	=79	=79
2E\	-e	2e\	-ri-	.	.	2.c/	.
.	.	.	.	4E/	-ri-	.	.
!LO:TX:t=P:problem=kreska pseudotaktowa	!	!	!	!	!	!	!
2F\	e-	2A/	-e	1A	-e	.	.
.	.	.	.	.	.	4d\	.
0E	-lei-	2c\	e-	.	.	0e	-lei-
.	.	4B\	.	4G/	.	.	.
!	!	!LO:TX:t=P:problem=kreska pseudotaktowa	!	!LO:TX:t=P:problem=kreska pseudotaktowa	!	!	!
.	.	4A/	.	4F/	.	.	.
=80-	=80-	=80	=80	=80	=80	=80-	=80-
.	.	2B\	.	4E/	.	.	.
.	.	.	.	4F/	.	.	.
.	.	2G/	-lei-	4G/	.	.	.
.	.	.	.	8F/L	.	.	.
.	.	.	.	8G/J	.	.	.
*lig	*	*	*	*	*	*	*
!	!	!	!	!	!	!LO:TX:t=P:problem=kreska pseudotaktowa	!
1D	-ſon	2d\	-ſon	1A	.	1A	-ſon
.	.	2D/	Kÿ-	.	.	.	.
=81-	=81-	=81-	=81-	=81-	=81-	=81	=81
!	!	!	!	!LO:TX:t=P:problem=kreska pseudotaktowa	!	!	!
1AA	Kÿ-	1G	-ri-	1G	.	1r	.
*Xlig	*	*	*	*	*	*	*
*lig	*	*	*	*	*	*	*
*col	*	*	*	*	*	*	*
1E	.	2.G/	-e	1c	e-	1.g	Kÿ-
!	!	!LO:TX:t=P:problem=kreska pseudotaktowa	!	!	!	!	!
.	.	4A/	.	.	.	.	.
=82-	=82-	=82	=82	=82-	=82-	=82-	=82-
!	!	!	!	!LO:TX:t=P:problem=kreska pseudotaktowa	!	!	!
2.G\	.	2B\	e-	1d	-lei-	.	.
.	.	2G/	-lei-	.	.	2g\	-ri-
*Xlig	*	*	*	*	*	*	*
*Xcol	*	*	*	*	*	*	*
!LO:TX:t=P:problem=kreska pseudotaktowa	!	!	!	!	!	!	!
4G\	-ri-	.	.	.	.	.	.
*lig	*	*	*	*	*	*	*
!	!	!	!	!	!	!LO:TX:t=P:problem=kreska pseudotaktowa	!
1D	-e	2A/	-ſon.	2d\	-ſon.	1f	-e
!	!	!LO:TX:t=P:problem=kreska pseudotaktowa	!	!	!	!	!
*	*	*	*	*lig	*	*	*
*	*	*	*	*col	*	*	*
*	*	*	*	*custos:A	*	*	*
!	!	!	!	!LO:LB:g=original	!	!	!
.	.	2r	.	1A\	Kÿ-	.	.
=83-	=83-	=83	=83	=83-	=83-	=83	=83
1AA	.	2r	.	.	.	1r	.
*	*	*lig	*	*	*	*	*
*	*	*col	*	*	*	*	*
.	.	1A	Ky-	2.c\	.	.	.
*Xlig	*	*	*	*	*	*	*
1AA	Kÿ-	.	.	.	.	2r	.
*	*	*	*	*Xlig	*	*	*
*	*	*	*	*Xcol	*	*	*
.	.	.	.	4c\	-ri-	.	.
!	!	!	!	!LO:TX:t=P:problem=kreska pseudotaktowa	!	!	!
.	.	2.c\	.	2c\	-e	1e\	Ky-
*	*	*Xlig	*	*	*	*	*
*	*	*Xcol	*	*	*	*	*
=84-	=84-	=84-	=84-	=84	=84	=84-	=84-
!	!	!	!	!LO:TX:t=P:problem=kreska pseudotaktowa	!	!	!
2.C/	.	.	.	1c	e-	.	.
.	.	4c\	-ri-	.	.	.	.
*	*	*custos:G	*	*	*	*	*
!	!	!LO:LB:g=original	!	!	!	!	!
!	!	!LO:TX:t=P::problem=kreska pseudotaktowa&colon;między nutą a kropką	!	!	!	!LO:TX:t=P::problem=kreska pseudotaktowa&colon;między nutą a kropką	!
.	.	2.G/	-e	.	.	2.g\	-ri-
!LO:TX:t=P:problem=kreska pseudotaktowa	!	!	!	!	!	!	!
4C/	-ri-	.	.	.	.	.	.
1GG,>	-e	.	.	2.B\	.	.	.
.	.	4A/	.	.	.	4g\	-e
!	!	!LO:TX:a:t=P:problem=# below	!	!	!	!	!
.	.	2B#X\	e-	.	.	2.d\	e-
.	.	.	.	4c\	.	.	.
=85-	=85-	=85-	=85-	=85-	=85-	=85-	=85-
!	!	!	!	!LO:TX:t=P:problem=kreska pseudotaktowa	!	!	!
1D	e-	1A	-lei-	1d	-lei-	.	.
.	.	.	.	.	.	4e\	.
!	!	!	!	!	!	!LO:TX:t=P::problem=kreska pseudotaktowa&colon;między nutą a kropką	!
.	.	.	.	.	.	2.f\	.
!	!	!LO:TX:t=P:problem=kreska pseudotaktowa	!	!	!	!	!
2.AA/	.	1A	-ſon.	2c\	-ſon.	.	.
.	.	.	.	.	.	4c/	.
.	.	.	.	1c\	Ky-	1f\	-lei-
4BB/	.	.	.	.	.	.	.
=86-	=86-	=86	=86	=86-	=86-	=86-	=86-
!LO:TX:t=P:problem=kreska pseudotaktowa	!	!	!	!	!	!	!
1C	.	2r	.	.	.	.	.
*	*	*	*	*	*	*custos:e	*
!	!	!	!	!	!	!LO:PB:g=original	!
!	!	!LO:TX:t=P:problem=kreska pseudotaktowa	!	!LO:TX:t=P:problem=kreska pseudotaktowa	!	!LO:TX:t=P:problem=kreska pseudotaktowa	!
.	.	2G/	Ky-	2G/	-ri-	2e\	-ſon
2.FF/	.	2F/	-ri-	2A/	-e	2A/	e-
.	.	2.A/	-e	2A/	e-	2.A/	-lei-
4GG/	.	.	.	.	.	.	.
=87-	=87-	=87-	=87-	=87-	=87-	=87-	=87-
0AA	-lei-	.	.	0A	-lei-	.	.
.	.	8G/L	.	.	.	4B/	.
.	.	8F/J	.	.	.	.	.
.	.	1E	e-	.	.	4c#X/	.
.	.	.	.	.	.	4d\	.
.	.	.	.	.	.	1e	.
.	.	2A/	-lei-	.	.	.	.
=88-	=88-	=88-	=88-	=88-	=88-	=88-	=88-
00D\	-ſon.	00F#X\	-ſon.	00A	-ſon.	00d\	-ſon
==	==	==	==	==	==	==	==
*-	*-	*-	*-	*-	*-	*-	*-
!!!system-decoration: [(g1)]
!!!RDF**kern: l = terminal long
!!!RDF**kern: > = above
!!!RDF**kern: < = below
!!!ENC: Filip Voros
!!!END: 2022-01-06
!!!EED: Jędrzej Mróz
!!!EEV: 2022-01-10
